;FLAVOR:Marlin
;TIME:2264
;Filament used: 2.55504m
;Layer height: 0.2
;Generated with Cura_SteamEngine 1.2.2
M190 S35
M104 S220
M109 S220
G28
G1 Z50.00 F400
G92 E0
G1 F200 E3
G92 E0
M132 X Y Z A
M907 X100 Y100 Z50 A100
;LAYER_COUNT:35
;LAYER:0
M107
G0 F3000 X-3.1 Y28.844 Z0.3
;TYPE:SKIRT
G1 F1500 X-3.51 Y28.977 E0.0215
G1 X-8.657 Y30.397 E0.28788
G1 X-11.153 Y31.19 E0.41854
G1 X-17.517 Y33.562 E0.75738
G1 X-19.072 Y34.163 E0.84055
G1 X-19.757 Y34.371 E0.87627
G1 X-20.433 Y34.522 E0.91082
G1 X-21.066 Y34.619 E0.94277
G1 X-21.923 Y34.693 E0.98569
G1 X-22.76 Y34.692 E1.02745
G1 X-23.752 Y34.604 E1.07713
G1 X-24.541 Y34.467 E1.11708
G1 X-25.456 Y34.228 E1.16427
G1 X-26.267 Y33.936 E1.20727
G1 X-27.138 Y33.531 E1.25519
G1 X-27.681 Y33.235 E1.28605
G1 X-27.965 Y33.041 E1.3032
G1 X-29.023 Y32.26 E1.36881
G1 X-29.712 Y31.64 E1.41506
G1 X-30.321 Y30.975 E1.46004
G1 X-30.848 Y30.283 E1.50344
G1 X-31.386 Y29.425 E1.55396
G1 X-31.68 Y28.88 E1.58486
G1 X-31.813 Y28.561 E1.6021
G1 X-32.258 Y27.375 E1.6653
G1 X-32.494 Y26.508 E1.71013
G1 X-32.645 Y25.636 E1.75428
G1 X-32.711 Y25.02 E1.78519
G1 X-32.712 Y24.661 E1.8031
G1 X-31.703 Y-6.295 E3.34832
G1 X-31.629 Y-6.998 E3.38358
G1 X-31.501 Y-7.702 E3.41928
G1 X-31.351 Y-8.303 E3.45019
G1 X-31.233 Y-8.629 E3.46748
G1 X-30.819 Y-9.662 E3.52301
G1 X-30.413 Y-10.454 E3.56741
G1 X-30.11 Y-10.93 E3.59556
G1 X-29.575 Y-11.622 E3.6392
G1 X-28.823 Y-12.43 E3.69427
G1 X-28.181 Y-13.006 E3.7373
G1 X-27.739 Y-13.336 E3.76482
G1 X-27.067 Y-13.756 E3.80435
G1 X-25.768 Y-14.426 E3.87727
G1 X-25.58 Y-14.518 E3.88771
G1 X24.091 Y-37.446 E6.61708
G1 X24.669 Y-37.669 E6.64799
G1 X25.383 Y-37.834 E6.68455
G1 X26.378 Y-37.985 E6.73476
G1 X26.995 Y-38.038 E6.76565
G1 X27.74 Y-37.996 E6.80288
G1 X28.748 Y-37.86 E6.85362
G1 X29.355 Y-37.738 E6.88451
G1 X30.188 Y-37.428 E6.92886
G1 X31.266 Y-36.909 E6.98855
G1 X31.806 Y-36.605 E7.01946
G1 X32.335 Y-36.205 E7.05255
G1 X32.921 Y-35.695 E7.09131
G1 X33.361 Y-35.259 E7.12221
G1 X33.817 Y-34.655 E7.15997
G1 X34.468 Y-33.634 E7.22038
G1 X34.767 Y-33.091 E7.25131
G1 X34.993 Y-32.514 E7.28222
G1 X35.079 Y-32.21 E7.29798
G1 X35.346 Y-31.135 E7.35324
G1 X35.457 Y-30.526 E7.38413
G1 X35.481 Y-29.713 E7.42471
G1 X35.425 Y-28.7 E7.47532
G1 X35.351 Y-28.085 E7.50623
G1 X35.276 Y-27.75 E7.52335
G1 X33.68 Y-21.651 E7.83788
G1 X32.617 Y-16.376 E8.10634
G1 X31.598 Y-9.599 E8.44825
G1 X31.517 Y-9.186 E8.46924
G1 X29.776 Y-1.968 E8.83968
G1 X29.042 Y1.885 E9.03536
G1 X27.072 Y13.455 E9.6209
G1 X26.929 Y14.057 E9.65177
G1 X26.748 Y14.55 E9.67797
G1 X26.277 Y15.642 E9.7373
G1 X25.995 Y16.194 E9.76823
G1 X25.616 Y16.741 E9.80143
G1 X25.343 Y17.082 E9.82322
G1 X24.926 Y17.539 E9.85409
G1 X24.591 Y17.833 E9.87632
G1 X23.866 Y18.412 E9.92261
G1 X23.358 Y18.766 E9.9535
G1 X22.839 Y19.039 E9.98276
G1 X22.058 Y19.39 E10.02548
G1 X21.777 Y19.506 E10.04064
G1 X-3.1 Y28.844 E11.36632
G0 F3000 X-3.241 Y28.469
G1 F1500 X-3.617 Y28.591 E11.38604
G1 X-8.751 Y30.008 E11.65175
G1 X-11.293 Y30.815 E11.78481
G1 X-17.633 Y33.178 E12.12237
G1 X-19.216 Y33.79 E12.20705
G1 X-19.844 Y33.98 E12.23978
G1 X-20.52 Y34.131 E12.27434
G1 X-21.1 Y34.221 E12.30362
G1 X-21.957 Y34.295 E12.34653
G1 X-22.725 Y34.294 E12.38485
G1 X-23.717 Y34.206 E12.43453
G1 X-24.44 Y34.08 E12.47115
G1 X-25.355 Y33.841 E12.51833
G1 X-26.098 Y33.574 E12.55772
G1 X-26.969 Y33.169 E12.60564
G1 X-27.727 Y32.719 E12.64962
G1 X-28.785 Y31.938 E12.71523
G1 X-29.417 Y31.37 E12.75762
G1 X-30.026 Y30.705 E12.80261
G1 X-30.509 Y30.07 E12.84241
G1 X-31.047 Y29.212 E12.89294
G1 X-31.439 Y28.421 E12.93698
G1 X-31.884 Y27.235 E13.00018
G1 X-32.099 Y26.44 E13.04127
G1 X-32.25 Y25.568 E13.08542
G1 X-32.312 Y24.978 E13.11501
G1 X-32.313 Y24.674 E13.13018
G1 X-31.304 Y-6.282 E14.6754
G1 X-31.235 Y-6.926 E14.70772
G1 X-31.107 Y-7.63 E14.74341
G1 X-30.862 Y-8.48 E14.78755
G1 X-30.448 Y-9.513 E14.84307
G1 X-30.076 Y-10.239 E14.88377
G1 X-29.773 Y-10.715 E14.91192
G1 X-29.282 Y-11.35 E14.95196
G1 X-28.53 Y-12.158 E15.00703
G1 X-27.941 Y-12.686 E15.0465
G1 X-27.499 Y-13.016 E15.07402
G1 X-26.884 Y-13.4 E15.11019
G1 X-25.585 Y-14.07 E15.18311
G1 X-25.412 Y-14.155 E15.19272
G1 X24.259 Y-37.083 E17.92209
G1 X24.813 Y-37.295 E17.95168
G1 X25.443 Y-37.438 E17.98391
G1 X26.438 Y-37.589 E18.03412
G1 X27.029 Y-37.638 E18.06371
G1 X27.686 Y-37.599 E18.09654
G1 X28.694 Y-37.463 E18.14729
G1 X29.275 Y-37.345 E18.17687
G1 X30.015 Y-37.067 E18.2163
G1 X31.093 Y-36.548 E18.27599
G1 X31.608 Y-36.256 E18.30553
G1 X32.073 Y-35.903 E18.33466
G1 X32.659 Y-35.393 E18.37341
G1 X33.079 Y-34.975 E18.40298
G1 X33.48 Y-34.44 E18.43633
G1 X34.131 Y-33.419 E18.49675
G1 X34.415 Y-32.898 E18.52635
G1 X34.691 Y-32.114 E18.56782
G1 X34.958 Y-31.039 E18.62308
G1 X35.062 Y-30.455 E18.65267
G1 X35.081 Y-29.735 E18.68861
G1 X35.025 Y-28.722 E18.73922
G1 X34.889 Y-27.851 E18.7832
G1 X33.291 Y-21.742 E19.09824
G1 X32.221 Y-16.436 E19.36828
G1 X31.202 Y-9.658 E19.71024
G1 X31.128 Y-9.28 E19.72945
G1 X29.386 Y-2.059 E20.10005
G1 X28.648 Y1.818 E20.29694
G1 X26.678 Y13.388 E20.88248
G1 X26.539 Y13.964 E20.91204
G1 X26.38 Y14.392 E20.93482
G1 X25.909 Y15.484 E20.99415
G1 X25.638 Y16.011 E21.02372
G1 X25.304 Y16.491 E21.05289
G1 X25.031 Y16.832 E21.07469
G1 X24.63 Y17.269 E21.10428
G1 X24.342 Y17.52 E21.12333
G1 X23.617 Y18.099 E21.16962
G1 X23.13 Y18.437 E21.1992
G1 X22.675 Y18.674 E21.22479
G1 X21.894 Y19.025 E21.26751
G1 X21.636 Y19.131 E21.28143
G1 X-3.241 Y28.469 E22.6071
G0 F3000 X-3.381 Y28.095
G1 F1500 X-3.723 Y28.206 E22.62504
G1 X-8.899 Y29.634 E22.89292
G1 X-11.416 Y30.433 E23.02467
G1 X-17.768 Y32.801 E23.36288
G1 X-19.361 Y33.417 E23.44809
G1 X-19.931 Y33.59 E23.47781
G1 X-20.607 Y33.741 E23.51236
G1 X-21.135 Y33.822 E23.53901
G1 X-21.992 Y33.896 E23.58193
G1 X-22.689 Y33.895 E23.6167
G1 X-23.681 Y33.807 E23.66639
G1 X-24.339 Y33.693 E23.6997
G1 X-25.254 Y33.454 E23.74688
G1 X-25.93 Y33.211 E23.78272
G1 X-26.801 Y32.806 E23.83065
G1 X-27.49 Y32.397 E23.87062
G1 X-28.548 Y31.616 E23.93623
G1 X-29.122 Y31.099 E23.97477
G1 X-29.731 Y30.434 E24.01976
G1 X-30.17 Y29.858 E24.05589
G1 X-30.708 Y29 E24.10641
G1 X-31.064 Y28.28 E24.14648
G1 X-31.509 Y27.094 E24.20968
G1 X-31.705 Y26.372 E24.24701
G1 X-31.856 Y25.5 E24.29116
G1 X-31.913 Y24.687 E24.33182
G1 X-30.904 Y-6.269 E25.87704
G1 X-30.841 Y-6.855 E25.90644
G1 X-30.713 Y-7.559 E25.94214
G1 X-30.491 Y-8.331 E25.98222
G1 X-30.077 Y-9.364 E26.03774
G1 X-29.738 Y-10.024 E26.07476
G1 X-29.435 Y-10.5 E26.10291
G1 X-28.989 Y-11.077 E26.13929
G1 X-28.237 Y-11.885 E26.19436
G1 X-27.702 Y-12.365 E26.23022
G1 X-27.26 Y-12.695 E26.25774
G1 X-26.701 Y-13.045 E26.29064
G1 X-25.402 Y-13.715 E26.36356
G1 X-25.244 Y-13.792 E26.37233
G1 X24.427 Y-36.72 E29.1017
G1 X24.955 Y-36.92 E29.12986
G1 X25.503 Y-37.043 E29.15788
G1 X26.498 Y-37.194 E29.20809
G1 X27.061 Y-37.239 E29.23627
G1 X27.633 Y-37.203 E29.26486
G1 X28.641 Y-37.067 E29.31561
G1 X29.194 Y-36.952 E29.34379
G1 X29.841 Y-36.707 E29.37831
G1 X30.919 Y-36.188 E29.438
G1 X31.41 Y-35.907 E29.46622
G1 X31.81 Y-35.601 E29.49135
G1 X32.396 Y-35.091 E29.5301
G1 X32.795 Y-34.691 E29.55829
G1 X33.143 Y-34.224 E29.58735
G1 X33.794 Y-33.203 E29.64776
G1 X34.063 Y-32.707 E29.67591
G1 X34.303 Y-32.017 E29.71235
G1 X34.57 Y-30.942 E29.76762
G1 X34.667 Y-30.385 E29.79582
G1 X34.682 Y-29.757 E29.82716
G1 X34.626 Y-28.744 E29.87778
G1 X34.502 Y-27.952 E29.91777
G1 X32.901 Y-21.834 E30.23328
G1 X31.829 Y-16.515 E30.50398
G1 X30.807 Y-9.717 E30.84695
G1 X30.739 Y-9.374 E30.86439
G1 X28.995 Y-2.145 E31.23539
G1 X28.247 Y1.783 E31.43488
G1 X26.283 Y13.32 E32.01875
G1 X26.149 Y13.87 E32.04699
G1 X26.013 Y14.233 E32.06633
G1 X25.542 Y15.325 E32.12566
G1 X25.282 Y15.827 E32.15387
G1 X24.992 Y16.241 E32.17908
G1 X24.719 Y16.582 E32.20088
G1 X24.335 Y16.997 E32.22909
G1 X24.092 Y17.208 E32.24514
G1 X23.367 Y17.787 E32.29143
G1 X22.902 Y18.107 E32.31959
G1 X22.511 Y18.309 E32.34155
G1 X21.73 Y18.66 E32.38427
G1 X21.496 Y18.757 E32.39691
G1 X-3.381 Y28.095 E33.72258
G0 F3000 X-3.522 Y27.72
G1 F1500 X-3.829 Y27.82 E33.73869
G1 X-9 Y29.247 E34.00631
G1 X-11.556 Y30.058 E34.1401
G1 X-17.896 Y32.422 E34.47768
G1 X-19.505 Y33.044 E34.56374
G1 X-20.018 Y33.199 E34.59047
G1 X-20.694 Y33.35 E34.62503
G1 X-21.169 Y33.424 E34.64901
G1 X-22.026 Y33.498 E34.69193
G1 X-22.654 Y33.497 E34.72326
G1 X-23.646 Y33.409 E34.77295
G1 X-24.238 Y33.306 E34.80293
G1 X-25.153 Y33.067 E34.85011
G1 X-25.761 Y32.848 E34.88235
G1 X-26.632 Y32.443 E34.93027
G1 X-27.252 Y32.075 E34.96624
G1 X-28.31 Y31.294 E35.03185
G1 X-28.827 Y30.829 E35.06654
G1 X-29.436 Y30.164 E35.11153
G1 X-29.831 Y29.645 E35.14406
G1 X-30.369 Y28.787 E35.19459
G1 X-30.69 Y28.14 E35.23062
G1 X-31.135 Y26.954 E35.29382
G1 X-31.311 Y26.303 E35.32747
G1 X-31.462 Y25.431 E35.37162
G1 X-31.513 Y24.7 E35.40818
G1 X-30.504 Y-6.256 E36.9534
G1 X-30.448 Y-6.783 E36.97984
G1 X-30.32 Y-7.487 E37.01554
G1 X-30.12 Y-8.182 E37.05162
G1 X-29.706 Y-9.215 E37.10714
G1 X-29.401 Y-9.809 E37.14045
G1 X-29.098 Y-10.285 E37.1686
G1 X-28.696 Y-10.805 E37.20139
G1 X-27.944 Y-11.613 E37.25646
G1 X-27.463 Y-12.045 E37.28872
G1 X-27.021 Y-12.375 E37.31624
G1 X-26.517 Y-12.689 E37.34586
G1 X-25.218 Y-13.359 E37.41878
G1 X-25.077 Y-13.429 E37.42664
G1 X24.594 Y-36.357 E40.156
G1 X25.097 Y-36.544 E40.18277
G1 X25.563 Y-36.647 E40.20658
G1 X26.558 Y-36.798 E40.25679
G1 X27.093 Y-36.839 E40.28356
G1 X27.579 Y-36.807 E40.30786
G1 X28.587 Y-36.671 E40.3586
G1 X29.112 Y-36.56 E40.38538
G1 X29.668 Y-36.347 E40.41508
G1 X30.746 Y-35.828 E40.47477
G1 X31.21 Y-35.56 E40.5015
G1 X31.547 Y-35.3 E40.52274
G1 X32.133 Y-34.79 E40.5615
G1 X32.511 Y-34.408 E40.58831
G1 X32.805 Y-34.009 E40.61303
G1 X33.456 Y-32.988 E40.67345
G1 X33.71 Y-32.516 E40.70019
G1 X33.915 Y-31.921 E40.73158
G1 X34.182 Y-30.846 E40.78685
G1 X34.272 Y-30.317 E40.81362
G1 X34.283 Y-29.779 E40.84046
G1 X34.227 Y-28.766 E40.89108
G1 X34.115 Y-28.054 E40.92704
G1 X32.513 Y-21.93 E41.24285
G1 X31.432 Y-16.572 E41.51554
G1 X30.411 Y-9.777 E41.85835
G1 X30.351 Y-9.468 E41.87406
G1 X28.605 Y-2.231 E42.24547
G1 X27.847 Y1.752 E42.44775
G1 X25.889 Y13.253 E43.02979
G1 X25.76 Y13.774 E43.05657
G1 X25.646 Y14.075 E43.07263
G1 X25.175 Y15.167 E43.13196
G1 X24.926 Y15.642 E43.15872
G1 X24.679 Y15.991 E43.18005
G1 X24.406 Y16.332 E43.20184
G1 X23.843 Y16.895 E43.24157
G1 X23.118 Y17.474 E43.28785
G1 X22.675 Y17.777 E43.31463
G1 X22.347 Y17.945 E43.33302
G1 X21.566 Y18.296 E43.37574
G1 X21.355 Y18.382 E43.3871
G1 X-3.522 Y27.72 E44.71278
G0 F3000 X-3.662 Y27.346
G1 F1500 X-3.936 Y27.435 E44.72715
G1 X-9.117 Y28.865 E44.9953
G1 X-11.69 Y29.682 E45.12998
G1 X-18.04 Y32.049 E45.46808
G1 X-19.649 Y32.671 E45.55414
G1 X-20.105 Y32.809 E45.57791
G1 X-20.781 Y32.96 E45.61247
G1 X-21.204 Y33.025 E45.63382
G1 X-22.061 Y33.099 E45.67673
G1 X-22.619 Y33.098 E45.70457
G1 X-23.611 Y33.01 E45.75426
G1 X-24.137 Y32.919 E45.78089
G1 X-25.052 Y32.68 E45.82807
G1 X-25.592 Y32.486 E45.8567
G1 X-26.463 Y32.081 E45.90462
G1 X-27.014 Y31.754 E45.93658
G1 X-28.072 Y30.973 E46.00219
G1 X-28.532 Y30.559 E46.03307
G1 X-29.141 Y29.894 E46.07805
G1 X-29.492 Y29.433 E46.10696
G1 X-30.03 Y28.575 E46.15749
G1 X-30.315 Y27.999 E46.18955
G1 X-30.76 Y26.813 E46.25275
G1 X-30.917 Y26.235 E46.28263
G1 X-31.068 Y25.363 E46.32678
G1 X-31.113 Y24.713 E46.35929
G1 X-30.104 Y-6.243 E47.90451
G1 X-30.054 Y-6.711 E47.92799
G1 X-29.926 Y-7.415 E47.96369
G1 X-29.748 Y-8.033 E47.99577
G1 X-29.334 Y-9.066 E48.05129
G1 X-29.063 Y-9.594 E48.0809
G1 X-28.76 Y-10.07 E48.10905
G1 X-28.403 Y-10.532 E48.13818
G1 X-27.651 Y-11.34 E48.19325
G1 X-27.223 Y-11.724 E48.22194
G1 X-26.781 Y-12.054 E48.24946
G1 X-26.334 Y-12.334 E48.27577
G1 X-25.035 Y-13.004 E48.34869
G1 X-24.909 Y-13.065 E48.35568
G1 X24.762 Y-35.993 E51.08504
G1 X25.236 Y-36.168 E51.11025
G1 X25.623 Y-36.252 E51.13001
G1 X26.618 Y-36.403 E51.18022
G1 X27.122 Y-36.439 E51.20542
G1 X27.526 Y-36.41 E51.22563
G1 X28.534 Y-36.274 E51.27638
G1 X29.028 Y-36.167 E51.30159
G1 X29.494 Y-35.986 E51.32654
G1 X30.572 Y-35.467 E51.38623
G1 X31.009 Y-35.213 E51.41144
G1 X31.285 Y-34.998 E51.4289
G1 X31.871 Y-34.488 E51.46765
G1 X32.225 Y-34.127 E51.49288
G1 X32.468 Y-33.794 E51.51345
G1 X33.119 Y-32.773 E51.57386
G1 X33.356 Y-32.327 E51.59905
G1 X33.527 Y-31.824 E51.62556
G1 X33.794 Y-30.749 E51.68082
G1 X33.876 Y-30.251 E51.706
G1 X33.883 Y-29.801 E51.72845
G1 X33.827 Y-28.788 E51.77907
G1 X33.728 Y-28.155 E51.81103
G1 X32.122 Y-22.018 E52.12752
G1 X31.037 Y-16.635 E52.40148
G1 X30.015 Y-9.836 E52.7445
G1 X29.962 Y-9.561 E52.75847
G1 X28.213 Y-2.313 E53.13045
G1 X27.46 Y1.646 E53.33151
G1 X25.495 Y13.186 E53.91553
G1 X25.371 Y13.676 E53.94074
G1 X25.278 Y13.916 E53.95358
G1 X24.807 Y15.008 E54.01292
G1 X24.571 Y15.455 E54.03813
G1 X24.367 Y15.741 E54.05566
G1 X24.094 Y16.082 E54.07745
G1 X23.593 Y16.582 E54.11277
G1 X22.868 Y17.161 E54.15906
G1 X22.449 Y17.445 E54.18431
G1 X22.183 Y17.58 E54.19919
G1 X21.402 Y17.931 E54.24191
G1 X21.215 Y18.008 E54.252
G1 X-3.662 Y27.346 E55.57767
G1 F1500 E53.57767
G0 F3000 X21.185 Y15.261
G0 X22.022 Y14.617
G0 X22.415 Y14.142
G0 X22.89 Y13.201
G0 X23.03 Y12.655
G0 X26.625 Y-8.677
G0 X25.737 Y-9.299
G0 X20.905 Y-9.575
;TYPE:SUPPORT
G1 F1500 E55.66083
G1 X20.788 Y-9.654 E55.66787
G1 X20.673 Y-9.738 E55.67497
G1 X20.494 Y-9.89 E55.68669
G1 X20.258 Y-10.107 E55.70268
G1 X20.245 Y-10.121 E55.70364
G1 X19.481 Y-11.027 E55.76276
G1 X18.996 Y-11.188 E55.78826
G1 X18.761 Y-11.135 E55.80028
G1 X19.032 Y-13.251 E55.90671
G1 X19.145 Y-13.81 E55.93516
G1 X19.325 Y-14.32 E55.96214
G1 X19.351 Y-14.376 E55.96522
G1 X19.609 Y-14.858 E55.9925
G1 X19.61 Y-14.858 E55.99255
G1 X19.619 Y-14.874 E55.99346
G1 X19.926 Y-15.293 E56.01938
G1 X19.965 Y-15.331 E56.02209
G1 X20.387 Y-15.762 E56.05219
G1 X20.813 Y-16.086 E56.07889
G1 X20.818 Y-16.089 E56.07918
G1 X21.326 Y-16.368 E56.1081
G1 X21.87 Y-16.57 E56.13705
G1 X21.875 Y-16.572 E56.13732
G1 X22.429 Y-16.691 E56.16559
G1 X22.479 Y-16.697 E56.1681
G1 X22.98 Y-16.732 E56.19315
G1 X22.999 Y-16.732 E56.1941
G1 X23.586 Y-16.688 E56.22347
G1 X24.153 Y-16.564 E56.25243
G1 X24.666 Y-16.368 E56.27982
G1 X24.702 Y-16.348 E56.28188
G1 X25.219 Y-16.059 E56.31143
G1 X25.654 Y-15.723 E56.33885
G1 X26.029 Y-15.342 E56.36552
G1 X26.066 Y-15.296 E56.36847
G1 X26.385 Y-14.858 E56.3955
G1 X26.408 Y-14.82 E56.39772
G1 X26.66 Y-14.344 E56.42459
G1 X26.856 Y-13.792 E56.45381
G1 X26.863 Y-13.768 E56.45506
G1 X26.968 Y-13.237 E56.48206
G1 X26.995 Y-12.621 E56.51282
G1 X26.948 Y-12.137 E56.53708
G1 X26.934 Y-12.017 E56.54311
G1 X26.587 Y-9.949 E56.64773
G1 X26.305 Y-10.084 E56.66332
G1 X25.803 Y-10.049 E56.68843
G1 X24.887 Y-9.442 E56.74325
G1 X24.554 Y-9.278 E56.76177
G1 X24.401 Y-9.209 E56.77015
G1 X24.191 Y-9.134 E56.78127
G1 X24.167 Y-9.126 E56.78253
G1 X24.167 Y-9.127 E56.78258
G1 X24.023 Y-9.084 E56.79008
G1 X23.713 Y-9.011 E56.80597
G1 X23.513 Y-8.977 E56.81609
G1 X23.304 Y-8.955 E56.82658
G1 X23.023 Y-8.941 E56.84061
G1 X22.689 Y-8.957 E56.85729
G1 X22.672 Y-8.958 E56.85814
G1 X22.672 Y-8.957 E56.85819
G1 X22.582 Y-8.965 E56.8627
G1 X22.276 Y-9.013 E56.87815
G1 X22.046 Y-9.061 E56.88988
G1 X21.95 Y-9.088 E56.89485
G1 X21.95 Y-9.087 E56.8949
G1 X21.698 Y-9.173 E56.90819
G1 X21.441 Y-9.277 E56.92202
G1 X21.303 Y-9.344 E56.92967
G1 X21.26 Y-9.366 E56.93208
G1 X21.044 Y-9.483 E56.94434
G1 X20.905 Y-9.574 E56.95263
G1 X20.905 Y-9.575 E56.95268
G0 F3000 X21.328 Y-9.502
G1 F1500 X21.328 Y-16.196 E57.28664
G0 F3000 X20.966 Y-15.995
G1 F1500 X25.022 Y-15.995 E57.48899
G0 F3000 X23.994 Y-16.442
G1 F1500 X23.994 Y-9.233 E57.84865
G0 F3000 X26.553 Y-10.663
G1 F1500 X19.985 Y-10.663 E58.17633
G0 F3000 X19.204 Y-13.329
G1 F1500 X26.795 Y-13.329 E58.55505
G0 F3000 X26.66 Y-13.888
G1 F1500 X26.66 Y-11.297 E58.68431
G1 F1500 E56.68431
G0 F3000 X21.273 Y-21.921
G0 X20.69 Y-23.065
G0 X28.423 Y-27.079
G0 X28.471 Y-26.992
;TYPE:WALL-INNER
G1 F1500 E58.76746
G1 X-8.93 Y-8.011 E60.85995
G1 X-18.282 Y-3.256 E61.38337
G1 X-17.376 Y24.157 E62.75175
G1 X-17.39 Y24.743 E62.781
G1 X-17.468 Y25.304 E62.80926
G1 X-17.611 Y25.857 E62.83775
G1 X-17.818 Y26.394 E62.86647
G1 X-18.08 Y26.893 E62.89458
G1 X-18.405 Y27.37 E62.92338
