;FLAVOR:Marlin
;TIME:3142
;Filament used: 3.135m
;Layer height: 0.2
;Generated with Cura_SteamEngine 1.2.2
M190 S35
M104 S220
M109 S220
G28
G1 Z50.00 F400
G92 E0
G1 F200 E3
G92 E0
M132 X Y Z A
M907 X100 Y100 Z50 A100
;LAYER_COUNT:127
;LAYER:0
M107
G0 F3000 X-.125 Y24.828 Z0.3
;TYPE:SKIRT
G1 F1500 X-5.51 Y24.375 E0.26961
G1 X-10.887 Y24.228 E0.53797
G1 X-16.301 Y24.386 E0.80819
G1 X-19.428 Y24.617 E0.96462
G1 X-19.784 Y24.63 E0.98239
G1 X-46.296 Y24.62 E2.30508
G1 X-46.914 Y24.58 E2.33598
G1 X-47.653 Y24.424 E2.37366
G1 X-48.185 Y24.267 E2.40133
G1 X-48.766 Y24.053 E2.43222
G1 X-49.419 Y23.702 E2.46921
G1 X-49.894 Y23.397 E2.49737
G1 X-50.393 Y23.029 E2.5283
G1 X-50.923 Y22.508 E2.56538
G1 X-51.29 Y22.086 E2.59328
G1 X-51.665 Y21.593 E2.62419
G1 X-52.076 Y20.836 E2.66716
G1 X-52.332 Y20.242 E2.69943
G1 X-52.54 Y19.658 E2.73036
G1 X-52.671 Y19.053 E2.76124
G1 X-52.722 Y18.478 E2.79004
G1 X-52.832 Y14.585 E2.98434
G1 X-53.141 Y9.138 E3.25653
G1 X-53.745 Y3.715 E3.52876
G1 X-53.775 Y3.176 E3.55569
G1 X-53.764 Y-3.302 E3.87888
G1 X-53.723 Y-3.92 E3.90978
G1 X-53.562 Y-4.673 E3.9482
G1 X-53.394 Y-5.233 E3.97737
G1 X-53.178 Y-5.814 E4.00829
G1 X-52.889 Y-6.362 E4.0392
G1 X-52.632 Y-6.74 E4.062
G1 X-52.152 Y-7.378 E4.10184
G1 X-51.597 Y-7.996 E4.14328
G1 X-48.671 Y-10.736 E4.34327
G1 X-44.895 Y-14.618 E4.61345
G1 X-41.37 Y-18.681 E4.88181
G1 X-38.081 Y-22.936 E5.15012
G1 X-35.032 Y-27.378 E5.41891
G1 X-32.24 Y-31.984 E5.68763
G1 X-28.735 Y-38.566 E6.05966
G1 X-28.409 Y-39.093 E6.09058
G1 X-28.018 Y-39.573 E6.12147
G1 X-27.402 Y-40.132 E6.16297
G1 X-26.773 Y-40.61 E6.20238
G1 X-26.257 Y-40.952 E6.23326
G1 X-25.44 Y-41.324 E6.27805
G1 X-25.004 Y-41.475 E6.30107
G1 X-24.407 Y-41.639 E6.33196
G1 X-23.633 Y-41.735 E6.37087
G1 X-22.173 Y-41.796 E6.44377
G1 X-21.963 Y-41.8 E6.45425
G1 X3.442 Y-41.749 E7.72171
G1 X4.1 Y-41.702 E7.75463
G1 X9.253 Y-40.978 E8.01423
G1 X14.624 Y-40.526 E8.28314
G1 X20.031 Y-40.374 E8.55301
G1 X20.211 Y-40.366 E8.56199
G1 X26.171 Y-39.974 E8.85998
G1 X26.877 Y-39.874 E8.89556
G1 X31.521 Y-38.863 E9.13267
G1 X36.109 Y-38.044 E9.36519
G1 X36.711 Y-37.896 E9.39612
G1 X37.288 Y-37.672 E9.427
G1 X37.832 Y-37.376 E9.45789
G1 X38.333 Y-37.011 E9.48882
G1 X38.616 Y-36.757 E9.50779
G1 X39.082 Y-36.303 E9.54025
G1 X39.496 Y-35.843 E9.57112
G1 X39.849 Y-35.334 E9.60203
G1 X40.132 Y-34.783 E9.63293
G1 X40.318 Y-34.282 E9.65959
G1 X40.411 Y-33.981 E9.67531
G1 X40.555 Y-33.379 E9.70619
G1 X40.625 Y-32.593 E9.74556
G1 X40.638 Y-30.462 E9.85188
G1 X40.602 Y-29.844 E9.88276
G1 X40.538 Y-29.456 E9.90238
G1 X39.422 Y-24.087 E10.17597
G1 X38.597 Y-18.769 E10.44446
G1 X38.073 Y-13.41 E10.71309
G1 X37.852 Y-8.022 E10.98213
G1 X37.937 Y-2.642 E11.25057
G1 X38.325 Y2.723 E11.51893
G1 X39.019 Y8.086 E11.78872
G1 X39.703 Y11.987 E11.98631
G1 X39.775 Y12.824 E12.02823
G1 X39.764 Y19.301 E12.35137
G1 X39.723 Y19.919 E12.38227
G1 X39.575 Y20.625 E12.41825
G1 X39.421 Y21.158 E12.44593
G1 X39.211 Y21.741 E12.47685
G1 X38.928 Y22.292 E12.50775
G1 X38.659 Y22.694 E12.53188
G1 X38.159 Y23.365 E12.57363
G1 X37.758 Y23.837 E12.60453
G1 X37.299 Y24.253 E12.63544
G1 X36.785 Y24.61 E12.66666
G1 X36.195 Y24.965 E12.70101
G1 X35.645 Y25.249 E12.73189
G1 X35.129 Y25.44 E12.75934
G1 X34.849 Y25.526 E12.77396
G1 X34.247 Y25.67 E12.80484
G1 X33.643 Y25.734 E12.83514
G1 X32.176 Y25.796 E12.90839
G1 X31.972 Y25.8 E12.91857
G1 X7.32 Y25.795 E14.14847
G1 X6.675 Y25.751 E14.18072
G1 X-.125 Y24.828 E14.52309
G0 F3000 X-0.076 Y24.431
G1 F1500 X-5.502 Y23.975 E14.79474
G1 X-10.888 Y23.828 E15.06355
G1 X-16.321 Y23.986 E15.33472
G1 X-19.458 Y24.218 E15.49165
G1 X-19.784 Y24.23 E15.50793
G1 X-46.296 Y24.22 E16.83062
G1 X-46.887 Y24.18 E16.86017
G1 X-47.539 Y24.04 E16.89344
G1 X-48.071 Y23.883 E16.92111
G1 X-48.628 Y23.677 E16.95074
G1 X-49.203 Y23.365 E16.98338
G1 X-49.678 Y23.06 E17.01154
G1 X-50.155 Y22.707 E17.04115
G1 X-50.621 Y22.245 E17.07389
G1 X-50.988 Y21.823 E17.10179
G1 X-51.346 Y21.351 E17.13134
G1 X-51.709 Y20.677 E17.16954
G1 X-51.965 Y20.083 E17.20181
G1 X-52.162 Y19.524 E17.23138
G1 X-52.283 Y18.944 E17.26093
G1 X-52.322 Y18.467 E17.28481
G1 X-52.432 Y14.586 E17.47851
G1 X-52.742 Y9.109 E17.7522
G1 X-53.348 Y3.671 E18.02518
G1 X-53.375 Y3.177 E18.04986
G1 X-53.364 Y-3.301 E18.37305
G1 X-53.323 Y-3.893 E18.40266
G1 X-53.178 Y-4.558 E18.43662
G1 X-53.01 Y-5.118 E18.46578
G1 X-52.802 Y-5.674 E18.4954
G1 X-52.521 Y-6.196 E18.52498
G1 X-52.312 Y-6.499 E18.54334
G1 X-51.832 Y-7.137 E18.58317
G1 X-51.324 Y-7.704 E18.62115
G1 X-48.383 Y-10.459 E18.8222
G1 X-44.606 Y-14.342 E19.09246
G1 X-41.061 Y-18.428 E19.36234
G1 X-37.75 Y-22.71 E19.63238
G1 X-34.703 Y-27.149 E19.901
G1 X-31.89 Y-31.789 E20.17171
G1 X-28.382 Y-38.378 E20.54412
G1 X-28.068 Y-38.881 E20.5737
G1 X-27.69 Y-39.338 E20.60329
G1 X-27.16 Y-39.813 E20.6388
G1 X-26.531 Y-40.291 E20.67821
G1 X-26.036 Y-40.617 E20.70778
G1 X-25.309 Y-40.946 E20.74759
G1 X-24.873 Y-41.097 E20.77061
G1 X-24.301 Y-41.253 E20.80019
G1 X-23.617 Y-41.335 E20.83456
G1 X-22.157 Y-41.396 E20.90746
G1 X-21.964 Y-41.4 E20.9171
G1 X3.441 Y-41.349 E22.18456
G1 X4.044 Y-41.306 E22.21472
G1 X9.198 Y-40.582 E22.47438
G1 X14.616 Y-40.126 E22.74564
G1 X20.02 Y-39.974 E23.01535
G1 X20.185 Y-39.967 E23.02359
G1 X26.145 Y-39.575 E23.32158
G1 X26.792 Y-39.483 E23.35418
G1 X31.418 Y-38.476 E23.59038
G1 X36.039 Y-37.651 E23.82457
G1 X36.614 Y-37.507 E23.85414
G1 X37.165 Y-37.288 E23.88372
G1 X37.682 Y-36.996 E23.91334
G1 X38.336 Y-36.471 E23.95518
G1 X38.802 Y-36.017 E23.98764
G1 X39.198 Y-35.575 E24.01725
G1 X39.531 Y-35.084 E24.04685
G1 X39.795 Y-34.553 E24.07643
G1 X39.936 Y-34.164 E24.09708
G1 X40.029 Y-33.863 E24.11279
G1 X40.165 Y-33.286 E24.14237
G1 X40.225 Y-32.591 E24.17717
G1 X40.238 Y-30.46 E24.28349
G1 X40.202 Y-29.868 E24.31308
G1 X40.146 Y-29.538 E24.32978
G1 X39.031 Y-24.171 E24.60326
G1 X38.2 Y-18.818 E24.87352
G1 X37.673 Y-13.431 E25.14356
G1 X37.452 Y-8.031 E25.41319
G1 X37.537 Y-2.642 E25.68208
G1 X37.928 Y2.767 E25.95264
G1 X38.626 Y8.162 E26.22405
G1 X39.309 Y12.056 E26.42128
G1 X39.375 Y12.823 E26.45969
G1 X39.364 Y19.3 E26.78283
G1 X39.323 Y19.892 E26.81244
G1 X39.191 Y20.514 E26.84416
G1 X39.037 Y21.047 E26.87184
G1 X38.834 Y21.605 E26.90146
G1 X38.559 Y22.13 E26.93103
G1 X38.338 Y22.455 E26.95064
G1 X37.838 Y23.126 E26.99239
G1 X37.453 Y23.577 E27.02197
G1 X37.01 Y23.971 E27.05155
G1 X36.578 Y24.267 E27.07767
G1 X35.988 Y24.622 E27.11203
G1 X35.461 Y24.893 E27.14159
G1 X35.012 Y25.058 E27.16546
G1 X34.732 Y25.144 E27.18007
G1 X34.155 Y25.28 E27.20965
G1 X33.626 Y25.334 E27.23617
G1 X32.159 Y25.396 E27.30943
G1 X31.972 Y25.4 E27.31876
G1 X7.32 Y25.395 E28.54865
G1 X6.729 Y25.355 E28.57821
G1 X-0.076 Y24.431 E28.92082
G0 F3000 X-0.048 Y24.032
G1 F1500 X-5.474 Y23.576 E29.19248
G1 X-10.888 Y23.427 E29.46269
G1 X-16.339 Y23.586 E29.73476
G1 X-19.487 Y23.819 E29.89224
G1 X-19.784 Y23.83 E29.90707
G1 X-46.296 Y23.82 E31.22976
G1 X-46.859 Y23.78 E31.25792
G1 X-47.426 Y23.656 E31.28687
G1 X-47.958 Y23.499 E31.31455
G1 X-48.488 Y23.301 E31.34277
G1 X-48.987 Y23.029 E31.37113
G1 X-49.462 Y22.724 E31.39929
G1 X-49.915 Y22.386 E31.42749
G1 X-50.319 Y21.983 E31.45596
G1 X-50.686 Y21.561 E31.48386
G1 X-51.026 Y21.109 E31.51208
G1 X-51.341 Y20.519 E31.54544
G1 X-51.597 Y19.925 E31.57771
G1 X-51.784 Y19.391 E31.60594
G1 X-51.893 Y18.837 E31.63411
G1 X-51.922 Y18.455 E31.65322
G1 X-52.032 Y14.587 E31.84628
G1 X-52.345 Y9.061 E32.12241
G1 X-52.95 Y3.627 E32.39519
G1 X-52.975 Y3.177 E32.41768
G1 X-52.964 Y-3.301 E32.74087
G1 X-52.923 Y-3.865 E32.76908
G1 X-52.795 Y-4.443 E32.79861
G1 X-52.627 Y-5.003 E32.82778
G1 X-52.427 Y-5.532 E32.856
G1 X-51.992 Y-6.259 E32.89826
G1 X-51.512 Y-6.897 E32.9381
G1 X-51.05 Y-7.412 E32.97261
G1 X-48.105 Y-10.17 E33.17391
G1 X-44.307 Y-14.074 E33.44564
G1 X-40.757 Y-18.167 E33.71595
G1 X-37.437 Y-22.461 E33.98674
G1 X-34.356 Y-26.949 E34.25834
G1 X-31.546 Y-31.586 E34.52884
G1 X-28.029 Y-38.19 E34.90212
G1 X-27.728 Y-38.669 E34.93035
G1 X-27.364 Y-39.101 E34.95853
G1 X-26.918 Y-39.495 E34.98822
G1 X-26.289 Y-39.973 E35.02764
G1 X-25.816 Y-40.282 E35.05582
G1 X-25.178 Y-40.568 E35.0907
G1 X-24.742 Y-40.719 E35.11372
G1 X-24.196 Y-40.866 E35.14193
G1 X-23.6 Y-40.936 E35.17187
G1 X-22.14 Y-40.997 E35.24478
G1 X-21.965 Y-41 E35.25351
G1 X3.44 Y-40.949 E36.52097
G1 X3.989 Y-40.91 E36.54843
G1 X9.165 Y-40.183 E36.8092
G1 X14.588 Y-39.727 E37.08071
G1 X20.009 Y-39.574 E37.35127
G1 X20.159 Y-39.567 E37.35876
G1 X26.119 Y-39.175 E37.65675
G1 X26.707 Y-39.092 E37.68637
G1 X31.342 Y-38.083 E37.92303
G1 X35.969 Y-37.257 E38.15752
G1 X36.517 Y-37.118 E38.18573
G1 X37.04 Y-36.904 E38.21392
G1 X37.528 Y-36.618 E38.24214
G1 X38.057 Y-36.184 E38.27628
G1 X38.523 Y-35.73 E38.30874
G1 X38.899 Y-35.308 E38.33693
G1 X39.212 Y-34.837 E38.36515
G1 X39.455 Y-34.327 E38.39333
G1 X39.554 Y-34.046 E38.4082
G1 X39.647 Y-33.745 E38.42391
G1 X39.775 Y-33.194 E38.45214
G1 X39.825 Y-32.588 E38.48247
G1 X39.838 Y-30.457 E38.58879
G1 X39.754 Y-29.619 E38.63081
G1 X38.639 Y-24.254 E38.90419
G1 X37.803 Y-18.864 E39.17631
G1 X37.275 Y-13.468 E39.4468
G1 X37.053 Y-8.042 E39.71774
G1 X37.138 Y-2.608 E39.98887
G1 X37.53 Y2.814 E40.26008
G1 X38.229 Y8.213 E40.53169
G1 X38.915 Y12.125 E40.72984
G1 X38.975 Y12.823 E40.76479
G1 X38.964 Y19.3 E41.08793
G1 X38.923 Y19.864 E41.11614
G1 X38.807 Y20.403 E41.14365
G1 X38.653 Y20.936 E41.17133
G1 X38.458 Y21.467 E41.19955
G1 X38.19 Y21.965 E41.22776
G1 X38.017 Y22.216 E41.24297
G1 X37.517 Y22.887 E41.28472
G1 X37.148 Y23.315 E41.31291
G1 X36.723 Y23.687 E41.34109
G1 X36.372 Y23.924 E41.36222
G1 X35.782 Y24.279 E41.39657
G1 X35.278 Y24.536 E41.4248
G1 X34.894 Y24.676 E41.44519
G1 X34.614 Y24.762 E41.4598
G1 X34.064 Y24.889 E41.48796
G1 X33.609 Y24.934 E41.51077
G1 X32.142 Y24.996 E41.58403
G1 X31.972 Y25 E41.59251
G1 X7.32 Y24.995 E42.82241
G1 X6.783 Y24.959 E42.84926
G1 X-0.048 Y24.032 E43.19318
G0 F3000 X0.002 Y23.634
G1 F1500 X-5.43 Y23.178 E43.46514
G1 X-10.906 Y23.027 E43.73844
G1 X-16.358 Y23.187 E44.01056
G1 X-19.517 Y23.42 E44.16859
G1 X-19.783 Y23.43 E44.18187
G1 X-46.295 Y23.42 E45.50456
G1 X-46.83 Y23.38 E45.53132
G1 X-47.313 Y23.273 E45.55601
G1 X-47.845 Y23.116 E45.58368
G1 X-48.347 Y22.926 E45.61046
G1 X-48.771 Y22.692 E45.63462
G1 X-49.246 Y22.387 E45.66278
G1 X-49.675 Y22.065 E45.68954
G1 X-50.017 Y21.72 E45.71378
G1 X-50.384 Y21.298 E45.74168
G1 X-50.705 Y20.869 E45.76841
G1 X-50.974 Y20.361 E45.79709
G1 X-51.23 Y19.767 E45.82936
G1 X-51.405 Y19.26 E45.85612
G1 X-51.503 Y18.733 E45.88286
G1 X-51.523 Y18.444 E45.89731
G1 X-51.634 Y14.519 E46.09321
G1 X-51.944 Y9.05 E46.3665
G1 X-52.553 Y3.583 E46.64094
G1 X-52.575 Y3.178 E46.66117
G1 X-52.564 Y-3.3 E46.98436
G1 X-52.523 Y-3.835 E47.01113
G1 X-52.412 Y-4.328 E47.03634
G1 X-52.244 Y-4.888 E47.06551
G1 X-52.052 Y-5.389 E47.09228
G1 X-51.673 Y-6.018 E47.12891
G1 X-51.193 Y-6.656 E47.16875
G1 X-50.777 Y-7.12 E47.19984
G1 X-47.828 Y-9.882 E47.40142
G1 X-44.01 Y-13.807 E47.6746
G1 X-40.447 Y-17.914 E47.94586
G1 X-37.112 Y-22.228 E48.2179
G1 X-34.022 Y-26.729 E48.49028
G1 X-31.196 Y-31.391 E48.76226
G1 X-27.676 Y-38.002 E49.13593
G1 X-27.389 Y-38.455 E49.16268
G1 X-27.038 Y-38.861 E49.18946
G1 X-26.676 Y-39.176 E49.2134
G1 X-26.047 Y-39.654 E49.25281
G1 X-25.597 Y-39.946 E49.27957
G1 X-25.047 Y-40.19 E49.30959
G1 X-24.611 Y-40.341 E49.33261
G1 X-24.093 Y-40.478 E49.35934
G1 X-23.583 Y-40.536 E49.38495
G1 X-22.123 Y-40.597 E49.45785
G1 X-21.966 Y-40.6 E49.46569
G1 X3.439 Y-40.549 E50.73315
G1 X3.933 Y-40.514 E50.75786
G1 X9.128 Y-39.784 E51.01958
G1 X14.545 Y-39.329 E51.29079
G1 X19.997 Y-39.175 E51.5629
G1 X20.132 Y-39.168 E51.56965
G1 X26.092 Y-38.776 E51.86763
G1 X26.622 Y-38.702 E51.89433
G1 X31.29 Y-37.686 E52.13267
G1 X35.899 Y-36.863 E52.36625
G1 X36.418 Y-36.73 E52.39298
G1 X36.912 Y-36.521 E52.41974
G1 X37.369 Y-36.241 E52.44648
G1 X37.778 Y-35.898 E52.47311
G1 X38.244 Y-35.444 E52.50557
G1 X38.599 Y-35.042 E52.53233
G1 X38.891 Y-34.592 E52.55909
G1 X39.172 Y-33.928 E52.59506
G1 X39.265 Y-33.627 E52.61078
G1 X39.384 Y-33.104 E52.63754
G1 X39.425 Y-32.586 E52.66346
G1 X39.438 Y-30.455 E52.76978
G1 X39.363 Y-29.7 E52.80763
G1 X38.24 Y-24.299 E53.08285
G1 X37.407 Y-18.927 E53.35407
G1 X36.875 Y-13.488 E53.62671
G1 X36.652 Y-8.052 E53.89815
G1 X36.738 Y-2.59 E54.17068
G1 X37.132 Y2.858 E54.44319
G1 X37.833 Y8.268 E54.71535
G1 X38.521 Y12.194 E54.91421
G1 X38.575 Y12.822 E54.94565
G1 X38.564 Y19.299 E55.26879
G1 X38.523 Y19.834 E55.29556
G1 X38.423 Y20.292 E55.31895
G1 X38.269 Y20.825 E55.34663
G1 X38.082 Y21.328 E55.3734
G1 X37.697 Y21.977 E55.41105
G1 X37.197 Y22.648 E55.4528
G1 X36.845 Y23.053 E55.47957
G1 X36.437 Y23.401 E55.50632
G1 X36.166 Y23.582 E55.52258
G1 X35.576 Y23.937 E55.55693
G1 X35.097 Y24.178 E55.58369
G1 X34.777 Y24.293 E55.60065
G1 X34.497 Y24.379 E55.61526
G1 X33.974 Y24.498 E55.64202
G1 X33.592 Y24.535 E55.66117
G1 X32.125 Y24.597 E55.73443
G1 X31.972 Y24.6 E55.74206
G1 X7.32 Y24.595 E56.97195
G1 X6.837 Y24.562 E56.99611
G1 X0.002 Y23.634 E57.34023
G0 F3000 X0.05 Y23.238
G1 F1500 X-5.421 Y22.778 E57.61415
G1 X-10.89 Y22.628 E57.8871
G1 X-16.399 Y22.788 E58.16206
G1 X-19.546 Y23.021 E58.31949
G1 X-19.783 Y23.03 E58.33133
G1 X-46.295 Y23.02 E59.65402
G1 X-46.799 Y22.98 E59.67924
G1 X-47.2 Y22.889 E59.69975
G1 X-47.732 Y22.732 E59.72743
G1 X-48.204 Y22.551 E59.75265
G1 X-48.555 Y22.356 E59.77268
G1 X-49.03 Y22.051 E59.80084
G1 X-49.433 Y21.745 E59.82609
G1 X-49.716 Y21.458 E59.8462
G1 X-50.083 Y21.036 E59.8741
G1 X-50.383 Y20.629 E59.89932
G1 X-50.607 Y20.203 E59.92334
G1 X-50.863 Y19.609 E59.95561
G1 X-51.025 Y19.13 E59.98083
G1 X-51.123 Y18.433 E60.01595
G1 X-51.234 Y14.519 E60.2113
G1 X-51.547 Y9 E60.48708
G1 X-52.155 Y3.538 E60.76127
G1 X-52.175 Y3.179 E60.7792
G1 X-52.164 Y-3.299 E61.10239
G1 X-52.123 Y-3.803 E61.12762
G1 X-52.029 Y-4.214 E61.14866
G1 X-51.861 Y-4.774 E61.17782
G1 X-51.678 Y-5.245 E61.20303
G1 X-51.353 Y-5.778 E61.23418
G1 X-50.873 Y-6.416 E61.27401
G1 X-50.503 Y-6.828 E61.30164
G1 X-47.55 Y-9.594 E61.5035
G1 X-43.72 Y-13.531 E61.77753
G1 X-40.137 Y-17.661 E62.05031
G1 X-36.781 Y-22.001 E62.32402
G1 X-33.693 Y-26.501 E62.5963
G1 X-30.847 Y-31.196 E62.87021
G1 X-27.323 Y-37.814 E63.24427
G1 X-27.05 Y-38.24 E63.26951
G1 X-26.715 Y-38.618 E63.29471
G1 X-26.434 Y-38.858 E63.31315
G1 X-25.805 Y-39.336 E63.35256
G1 X-25.38 Y-39.609 E63.37776
G1 X-24.916 Y-39.812 E63.40303
G1 X-24.48 Y-39.963 E63.42605
G1 X-23.991 Y-40.09 E63.45126
G1 X-23.567 Y-40.136 E63.47254
G1 X-22.107 Y-40.197 E63.54544
G1 X-21.967 Y-40.2 E63.55242
G1 X3.438 Y-40.149 E64.81989
G1 X3.877 Y-40.118 E64.84184
G1 X9.074 Y-39.388 E65.10367
G1 X14.535 Y-38.928 E65.37708
G1 X19.986 Y-38.775 E65.64914
G1 X20.106 Y-38.769 E65.65514
G1 X26.066 Y-38.377 E65.95313
G1 X26.537 Y-38.311 E65.97685
G1 X31.218 Y-37.292 E66.21586
G1 X35.828 Y-36.469 E66.44949
G1 X36.317 Y-36.341 E66.47471
G1 X36.78 Y-36.138 E66.49993
G1 X37.205 Y-35.864 E66.52516
G1 X37.499 Y-35.611 E66.54451
G1 X37.965 Y-35.157 E66.57697
G1 X38.298 Y-34.777 E66.60217
G1 X38.567 Y-34.349 E66.62739
G1 X38.789 Y-33.81 E66.65648
G1 X38.882 Y-33.509 E66.67219
G1 X38.993 Y-33.015 E66.69745
G1 X39.025 Y-32.584 E66.71902
G1 X39.038 Y-30.453 E66.82533
G1 X38.971 Y-29.782 E66.85898
G1 X37.849 Y-24.386 E67.13394
G1 X37.01 Y-18.974 E67.40717
G1 X36.475 Y-13.509 E67.68113
G1 X36.252 Y-8.061 E67.95316
G1 X36.339 Y-2.573 E68.22699
G1 X36.733 Y2.884 E68.49995
G1 X37.44 Y8.344 E68.77462
G1 X38.127 Y12.263 E68.97312
G1 X38.175 Y12.821 E69.00106
G1 X38.164 Y19.298 E69.3242
G1 X38.123 Y19.802 E69.34943
G1 X38.038 Y20.181 E69.36881
G1 X37.884 Y20.714 E69.39649
G1 X37.706 Y21.187 E69.4217
G1 X37.376 Y21.738 E69.45375
G1 X36.876 Y22.409 E69.49549
G1 X36.543 Y22.789 E69.5207
G1 X35.96 Y23.239 E69.55744
G1 X35.37 Y23.594 E69.5918
G1 X34.917 Y23.82 E69.61705
G1 X34.66 Y23.911 E69.63066
G1 X34.38 Y23.997 E69.64527
G1 X33.886 Y24.107 E69.67052
G1 X33.575 Y24.135 E69.6861
G1 X32.108 Y24.197 E69.75935
G1 X31.972 Y24.2 E69.76614
G1 X7.32 Y24.195 E70.99603
G1 X6.891 Y24.166 E71.01748
G1 X0.05 Y23.238 E71.36191
G1 F1500 E69.36191
G0 F3000 X-4.046 Y17.394
G0 X-4.092 Y17.329
