;FLAVOR:Marlin
;TIME:2446
;Filament used: 2.70389m
;Layer height: 0.2
;Generated with Cura_SteamEngine 1.2.2
M190 S35
M104 S220
M109 S220
G28
G1 Z50.00 F400
G92 E0
G1 F200 E3
G92 E0
M132 X Y Z A
M907 X100 Y100 Z50 A100
;LAYER_COUNT:127
;LAYER:0
M107
G0 F3000 X9.575 Y5.169 Z0.3
;TYPE:SKIRT
G1 F1500 X8.287 Y10.45 E0.27119
G1 X7.785 Y12.982 E0.39997
G1 X6.696 Y19.977 E0.75316
G1 X6.561 Y20.581 E0.78404
G1 X6.35 Y21.163 E0.81492
G1 X6.065 Y21.714 E0.84587
G1 X5.712 Y22.222 E0.87673
G1 X5.297 Y22.682 E0.90764
G1 X4.826 Y23.084 E0.93854
G1 X4.306 Y23.421 E0.96945
G1 X3.748 Y23.69 E1.00036
G1 X3.16 Y23.884 E1.03125
G1 X2.552 Y24.001 E1.06214
G1 X1.934 Y24.038 E1.09302
G1 X1.316 Y23.996 E1.12393
G1 X0.804 Y23.898 E1.14993
G1 X-2.822 Y23.004 E1.33625
G1 X-5.496 Y22.404 E1.47298
G1 X-10.803 Y21.449 E1.742
G1 X-16.131 Y20.797 E2.00979
G1 X-21.609 Y20.44 E2.28367
G1 X-24.936 Y20.312 E2.44978
G1 X-25.552 Y20.249 E2.48067
G1 X-26.155 Y20.106 E2.51159
G1 X-26.734 Y19.888 E2.54246
G1 X-27.281 Y19.596 E2.57339
G1 X-27.785 Y19.236 E2.60429
G1 X-28.342 Y18.702 E2.64279
G1 X-28.634 Y18.373 E2.66474
G1 X-29.014 Y17.884 E2.69563
G1 X-29.329 Y17.351 E2.72652
G1 X-29.572 Y16.781 E2.75743
G1 X-29.739 Y16.185 E2.78831
G1 X-29.829 Y15.572 E2.81922
G1 X-29.844 Y15.211 E2.83725
G1 X-29.875 Y9.013 E3.14647
G1 X-29.838 Y8.395 E3.17736
G1 X-29.68 Y7.635 E3.21609
G1 X-29.598 Y7.356 E3.2306
G1 X-29.386 Y6.775 E3.26145
G1 X-29.1 Y6.225 E3.29238
G1 X-28.592 Y5.534 E3.33517
G1 X-24.027 Y0.359 E3.67945
G1 X-22.378 Y-1.692 E3.81074
G1 X-19.177 Y-6.038 E4.08003
G1 X-16.227 Y-10.559 E4.34935
G1 X-13.546 Y-15.222 E4.6177
G1 X-11.488 Y-19.271 E4.8443
G1 X-11.172 Y-19.804 E4.87522
G1 X-10.79 Y-20.292 E4.90613
G1 X-10.191 Y-20.857 E4.94722
G1 X-7.066 Y-23.335 E5.14619
G1 X-6.557 Y-23.688 E5.17709
G1 X-6.007 Y-23.972 E5.20797
G1 X-5.425 Y-24.183 E5.23886
G1 X-4.82 Y-24.317 E5.26978
G1 X-4.203 Y-24.373 E5.30068
G1 X-3.77 Y-24.364 E5.32229
G1 X2.17 Y-23.974 E5.61928
G1 X2.877 Y-23.874 E5.6549
G1 X7.521 Y-22.863 E5.89202
G1 X12.109 Y-22.044 E6.12453
G1 X12.711 Y-21.896 E6.15546
G1 X13.288 Y-21.672 E6.18634
G1 X13.832 Y-21.376 E6.21724
G1 X14.213 Y-21.108 E6.24048
G1 X14.564 Y-20.835 E6.26266
G1 X15.027 Y-20.424 E6.29355
G1 X15.434 Y-19.957 E6.32445
G1 X15.777 Y-19.441 E6.35537
G1 X15.923 Y-19.166 E6.3709
G1 X16.116 Y-18.774 E6.3927
G1 X16.354 Y-18.202 E6.42361
G1 X16.515 Y-17.604 E6.4545
G1 X16.61 Y-16.7 E6.49985
G1 X16.632 Y-14.4 E6.61461
G1 X16.598 Y-13.781 E6.64553
G1 X16.488 Y-13.187 E6.67567
G1 X16.4 Y-12.836 E6.69373
G1 X16.1 Y-11.987 E6.73865
G1 X14.023 Y-7.499 E6.98537
G1 X13.027 Y-5.111 E7.11446
G1 X11.147 Y0.004 E7.38634
G1 X9.575 Y5.169 E7.65569
G0 F3000 X9.194 Y5.046
G1 F1500 X7.897 Y10.365 E7.92883
G1 X7.39 Y12.921 E8.05884
G1 X6.301 Y19.915 E8.41197
G1 X6.17 Y20.494 E8.44159
G1 X5.963 Y21.049 E8.47114
G1 X5.683 Y21.572 E8.50074
G1 X5.335 Y22.052 E8.53032
G1 X4.926 Y22.481 E8.55989
G1 X4.463 Y22.852 E8.58949
G1 X3.954 Y23.156 E8.61907
G1 X3.409 Y23.39 E8.64866
G1 X2.838 Y23.548 E8.67821
G1 X2.25 Y23.628 E8.70782
G1 X1.657 Y23.628 E8.7374
G1 X0.899 Y23.51 E8.77568
G1 X-2.78 Y22.603 E8.96472
G1 X-5.407 Y22.014 E9.09903
G1 X-10.74 Y21.054 E9.36938
G1 X-16.091 Y20.399 E9.63833
G1 X-21.568 Y20.042 E9.91216
G1 X-24.921 Y19.913 E10.07956
G1 X-25.51 Y19.85 E10.10912
G1 X-26.086 Y19.709 E10.1387
G1 X-26.638 Y19.491 E10.16831
G1 X-27.155 Y19.202 E10.19786
G1 X-27.629 Y18.845 E10.22747
G1 X-28.043 Y18.437 E10.25647
G1 X-28.335 Y18.108 E10.27841
G1 X-28.698 Y17.639 E10.308
G1 X-28.994 Y17.125 E10.33759
G1 X-29.219 Y16.576 E10.36719
G1 X-29.368 Y16.003 E10.39673
G1 X-29.444 Y15.209 E10.43652
G1 X-29.475 Y9.011 E10.74575
G1 X-29.438 Y8.419 E10.77534
G1 X-29.296 Y7.748 E10.80956
G1 X-29.214 Y7.469 E10.82407
G1 X-29.009 Y6.913 E10.85363
G1 X-28.731 Y6.389 E10.88322
G1 X-28.292 Y5.799 E10.91991
G1 X-23.718 Y0.615 E11.26483
G1 X-22.07 Y-1.436 E11.39609
G1 X-18.844 Y-5.816 E11.66748
G1 X-15.896 Y-10.334 E11.93663
G1 X-13.184 Y-15.051 E12.20808
G1 X-11.131 Y-19.09 E12.43412
G1 X-10.827 Y-19.599 E12.4637
G1 X-10.458 Y-20.063 E12.49328
G1 X-9.943 Y-20.544 E12.52844
G1 X-6.818 Y-23.022 E12.72741
G1 X-6.329 Y-23.358 E12.75701
G1 X-5.8 Y-23.625 E12.78658
G1 X-5.24 Y-23.819 E12.81614
G1 X-4.659 Y-23.936 E12.84571
G1 X-3.796 Y-23.965 E12.88879
G1 X2.144 Y-23.575 E13.18578
G1 X2.792 Y-23.483 E13.21843
G1 X7.418 Y-22.476 E13.45463
G1 X12.039 Y-21.651 E13.68881
G1 X12.614 Y-21.507 E13.71839
G1 X13.165 Y-21.288 E13.74797
G1 X13.682 Y-20.996 E13.77759
G1 X13.967 Y-20.792 E13.79508
G1 X14.318 Y-20.519 E13.81726
G1 X14.761 Y-20.124 E13.84687
G1 X15.146 Y-19.674 E13.87642
G1 X15.564 Y-18.99 E13.91641
G1 X15.757 Y-18.598 E13.93821
G1 X15.983 Y-18.049 E13.96783
G1 X16.133 Y-17.475 E13.99743
G1 X16.21 Y-16.696 E14.03648
G1 X16.232 Y-14.396 E14.15123
G1 X16.198 Y-13.804 E14.18082
G1 X16.1 Y-13.284 E14.20722
G1 X16.012 Y-12.933 E14.22527
G1 X15.737 Y-12.155 E14.26644
G1 X13.658 Y-7.663 E14.51339
G1 X12.657 Y-5.262 E14.64316
G1 X10.763 Y-.109 E14.91706
G1 X9.194 Y5.046 E15.1859
G0 F3000 X8.804 Y4.957
G1 F1500 X7.509 Y10.267 E15.45858
G1 X6.992 Y12.875 E15.59122
G1 X5.905 Y19.854 E15.94361
G1 X5.779 Y20.405 E15.97181
G1 X5.576 Y20.932 E15.99998
G1 X5.301 Y21.426 E16.02819
G1 X4.959 Y21.876 E16.05639
G1 X4.557 Y22.274 E16.08461
G1 X4.103 Y22.611 E16.11282
G1 X3.606 Y22.88 E16.14101
G1 X3.076 Y23.077 E16.16922
G1 X2.524 Y23.197 E16.1974
G1 X1.96 Y23.238 E16.22562
G1 X1.396 Y23.199 E16.25382
G1 X0.995 Y23.122 E16.27419
G1 X-2.694 Y22.212 E16.46375
G1 X-5.318 Y21.624 E16.59791
G1 X-10.69 Y20.657 E16.87023
G1 X-16.053 Y20.001 E17.13979
G1 X-21.565 Y19.641 E17.41537
G1 X-24.905 Y19.513 E17.58212
G1 X-25.467 Y19.452 E17.61032
G1 X-26.015 Y19.311 E17.63856
G1 X-26.537 Y19.095 E17.66674
G1 X-27.024 Y18.808 E17.69494
G1 X-27.466 Y18.455 E17.72316
G1 X-27.744 Y18.171 E17.74299
G1 X-28.036 Y17.842 E17.76494
G1 X-28.38 Y17.394 E17.79312
G1 X-28.658 Y16.902 E17.82131
G1 X-28.864 Y16.375 E17.84954
G1 X-28.993 Y15.825 E17.87772
G1 X-29.044 Y15.207 E17.90866
G1 X-29.075 Y9.009 E18.21788
G1 X-29.038 Y8.445 E18.24608
G1 X-28.913 Y7.861 E18.27588
G1 X-28.831 Y7.582 E18.29039
G1 X-28.633 Y7.052 E18.31861
G1 X-28.363 Y6.556 E18.34679
G1 X-27.992 Y6.064 E18.37753
G1 X-23.419 Y0.881 E18.72237
G1 X-21.753 Y-1.193 E18.85509
G1 X-18.517 Y-5.586 E19.1273
G1 X-15.547 Y-10.137 E19.39842
G1 X-12.843 Y-14.841 E19.66912
G1 X-10.775 Y-18.909 E19.89679
G1 X-10.483 Y-19.393 E19.92499
G1 X-10.127 Y-19.832 E19.95319
G1 X-9.694 Y-20.23 E19.98253
G1 X-6.569 Y-22.708 E20.18151
G1 X-6.103 Y-23.027 E20.20968
G1 X-5.596 Y-23.277 E20.23788
G1 X-5.058 Y-23.453 E20.26612
G1 X-4.502 Y-23.552 E20.2943
G1 X-3.822 Y-23.565 E20.32823
G1 X2.118 Y-23.175 E20.62522
G1 X2.707 Y-23.092 E20.65489
G1 X7.342 Y-22.083 E20.89155
G1 X11.969 Y-21.257 E21.12604
G1 X12.517 Y-21.118 E21.15425
G1 X13.04 Y-20.904 E21.18244
G1 X13.722 Y-20.476 E21.22261
G1 X14.073 Y-20.203 E21.24479
G1 X14.493 Y-19.826 E21.27295
G1 X14.857 Y-19.392 E21.30121
G1 X15.206 Y-18.813 E21.33494
G1 X15.399 Y-18.421 E21.35674
G1 X15.612 Y-17.897 E21.38496
G1 X15.749 Y-17.349 E21.41314
G1 X15.81 Y-16.692 E21.44606
G1 X15.832 Y-14.392 E21.56081
G1 X15.797 Y-13.828 E21.589
G1 X15.712 Y-13.381 E21.6117
G1 X15.624 Y-13.03 E21.62976
G1 X15.374 Y-12.323 E21.66717
G1 X13.293 Y-7.828 E21.91429
G1 X12.289 Y-5.42 E22.04445
G1 X10.386 Y-.242 E22.31968
G1 X8.804 Y4.957 E22.5908
G0 F3000 X8.422 Y4.834
G1 F1500 X7.112 Y10.207 E22.86671
G1 X6.601 Y12.785 E22.99783
G1 X5.51 Y19.792 E23.35162
G1 X5.388 Y20.314 E23.37837
G1 X5.19 Y20.813 E23.40515
G1 X4.921 Y21.276 E23.43187
G1 X4.585 Y21.694 E23.45862
G1 X4.191 Y22.058 E23.48538
G1 X3.747 Y22.359 E23.51214
G1 X3.263 Y22.591 E23.53892
G1 X2.751 Y22.748 E23.56564
G1 X2.22 Y22.828 E23.59243
G1 X1.684 Y22.828 E23.61917
G1 X1.091 Y22.733 E23.64913
G1 X-2.552 Y21.834 E23.83634
G1 X-5.256 Y21.228 E23.97459
G1 X-10.624 Y20.262 E24.2467
G1 X-16.03 Y19.6 E24.51842
G1 X-21.523 Y19.242 E24.79305
G1 X-24.89 Y19.113 E24.96115
G1 X-25.423 Y19.053 E24.98791
G1 X-25.941 Y18.914 E25.01467
G1 X-26.432 Y18.7 E25.04139
G1 X-26.887 Y18.415 E25.06818
G1 X-27.444 Y17.906 E25.10582
G1 X-27.736 Y17.577 E25.12777
G1 X-28.062 Y17.15 E25.15457
G1 X-28.32 Y16.68 E25.18132
G1 X-28.505 Y16.177 E25.20805
G1 X-28.614 Y15.652 E25.23481
G1 X-28.644 Y15.205 E25.25716
G1 X-28.675 Y9.007 E25.56638
G1 X-28.638 Y8.472 E25.59314
G1 X-28.529 Y7.974 E25.61857
G1 X-28.447 Y7.695 E25.63308
G1 X-28.258 Y7.193 E25.65984
G1 X-27.996 Y6.725 E25.6866
G1 X-27.693 Y6.328 E25.71151
G1 X-23.091 Y1.112 E26.05855
G1 X-21.444 Y-.937 E26.1897
G1 X-18.184 Y-5.364 E26.46399
G1 X-15.208 Y-9.925 E26.73569
G1 X-12.489 Y-14.655 E27.00788
G1 X-10.418 Y-18.728 E27.23585
G1 X-10.14 Y-19.186 E27.26258
G1 X-9.797 Y-19.598 E27.28932
G1 X-9.446 Y-19.917 E27.31298
G1 X-6.321 Y-22.395 E27.51196
G1 X-5.877 Y-22.696 E27.53872
G1 X-5.393 Y-22.927 E27.56548
G1 X-4.881 Y-23.085 E27.59221
G1 X-4.35 Y-23.164 E27.61899
G1 X-3.848 Y-23.166 E27.64404
G1 X2.092 Y-22.776 E27.94102
G1 X2.622 Y-22.702 E27.96772
G1 X7.29 Y-21.686 E28.20606
G1 X11.899 Y-20.863 E28.43964
G1 X12.418 Y-20.73 E28.46637
G1 X12.912 Y-20.521 E28.49313
G1 X13.476 Y-20.161 E28.52651
G1 X13.827 Y-19.888 E28.5487
G1 X14.225 Y-19.528 E28.57547
G1 X14.565 Y-19.113 E28.60224
G1 X14.847 Y-18.636 E28.62988
G1 X15.04 Y-18.244 E28.65168
G1 X15.24 Y-17.747 E28.67841
G1 X15.364 Y-17.225 E28.70518
G1 X15.41 Y-16.688 E28.73207
G1 X15.432 Y-14.388 E28.84682
G1 X15.397 Y-13.853 E28.87357
G1 X15.324 Y-13.479 E28.89258
G1 X15.236 Y-13.128 E28.91063
G1 X15.011 Y-12.491 E28.94434
G1 X12.933 Y-8.001 E29.19117
G1 X11.905 Y-5.537 E29.32437
G1 X10.007 Y-.37 E29.59899
G1 X8.422 Y4.834 E29.8704
G0 F3000 X8.035 Y4.733
G1 F1500 X6.725 Y10.104 E30.14621
G1 X6.207 Y12.719 E30.27921
G1 X5.115 Y19.73 E30.63321
G1 X4.998 Y20.222 E30.65844
G1 X4.805 Y20.69 E30.6837
G1 X4.541 Y21.121 E30.70891
G1 X4.212 Y21.505 E30.73414
G1 X3.827 Y21.832 E30.75934
G1 X3.395 Y22.095 E30.78457
G1 X2.927 Y22.286 E30.80979
G1 X2.435 Y22.402 E30.83501
G1 X1.93 Y22.438 E30.86027
G1 X1.187 Y22.345 E30.89763
G1 X-2.51 Y21.433 E31.0876
G1 X-5.167 Y20.838 E31.22344
G1 X-10.556 Y19.867 E31.49663
G1 X-15.992 Y19.202 E31.76985
G1 X-21.481 Y18.844 E32.04428
G1 X-24.875 Y18.714 E32.21373
G1 X-25.377 Y18.654 E32.23896
G1 X-25.863 Y18.517 E32.26415
G1 X-26.322 Y18.304 E32.28939
G1 X-26.742 Y18.022 E32.31463
G1 X-27.145 Y17.64 E32.34234
G1 X-27.437 Y17.311 E32.36428
G1 X-27.742 Y16.908 E32.3895
G1 X-27.979 Y16.461 E32.41474
G1 X-28.143 Y15.983 E32.43995
G1 X-28.23 Y15.485 E32.46517
G1 X-28.244 Y15.203 E32.47926
G1 X-28.275 Y9.005 E32.78848
G1 X-28.238 Y8.501 E32.81369
G1 X-28.145 Y8.087 E32.83486
G1 X-28.063 Y7.808 E32.84937
G1 X-27.883 Y7.335 E32.87462
G1 X-27.63 Y6.897 E32.89986
G1 X-27.393 Y6.593 E32.91909
G1 X-22.792 Y1.378 E33.26605
G1 X-21.127 Y-.694 E33.39866
G1 X-17.857 Y-5.134 E33.67377
G1 X-14.864 Y-9.721 E33.94702
G1 X-12.13 Y-14.477 E34.22071
G1 X-10.061 Y-18.546 E34.44845
G1 X-9.797 Y-18.977 E34.47366
G1 X-9.469 Y-19.362 E34.4989
G1 X-9.197 Y-19.603 E34.51703
G1 X-6.072 Y-22.081 E34.716
G1 X-5.653 Y-22.363 E34.7412
G1 X-5.194 Y-22.575 E34.76642
G1 X-4.707 Y-22.713 E34.79168
G1 X-4.205 Y-22.772 E34.81689
G1 X-3.874 Y-22.767 E34.83341
G1 X2.066 Y-22.377 E35.1304
G1 X2.537 Y-22.311 E35.15412
G1 X7.218 Y-21.292 E35.39313
G1 X11.828 Y-20.469 E35.62676
G1 X12.317 Y-20.341 E35.65198
G1 X12.78 Y-20.138 E35.6772
G1 X13.231 Y-19.845 E35.70403
G1 X13.582 Y-19.572 E35.72622
G1 X13.955 Y-19.231 E35.75143
G1 X14.27 Y-18.835 E35.77667
G1 X14.488 Y-18.459 E35.79836
G1 X14.681 Y-18.067 E35.82016
G1 X14.868 Y-17.598 E35.84535
G1 X14.978 Y-17.104 E35.8706
G1 X15.01 Y-16.685 E35.89156
G1 X15.032 Y-14.385 E36.00631
G1 X14.997 Y-13.88 E36.03157
G1 X14.936 Y-13.576 E36.04704
G1 X14.848 Y-13.225 E36.06509
G1 X14.648 Y-12.659 E36.09504
G1 X12.568 Y-8.166 E36.34205
G1 X11.538 Y-5.696 E36.47557
G1 X9.624 Y-.488 E36.75238
G1 X8.035 Y4.733 E37.02466
G1 F1500 E35.02466
G0 F3000 X2.715 Y4.732
G0 X1.43 Y4.732
G0 X-2.735 Y10.545
G0 X-2.819 Y10.598
;TYPE:WALL-INNER
G1 F1500 E37.10781
G1 X-8.321 Y1.874 E37.62238
G1 X-11.062 Y-2.455 E37.87801
G1 X-11.323 Y-2.943 E37.90562
G1 X-11.531 Y-3.424 E37.93176
G1 X-11.686 Y-3.924 E37.95788
G1 X-11.787 Y-4.429 E37.98357
G1 X-11.835 Y-4.945 E38.00943
G1 X-11.828 Y-5.472 E38.03572
G1 X-11.768 Y-5.991 E38.06179
G1 X-11.654 Y-6.498 E38.08771
G1 X-11.489 Y-6.984 E38.11332
G1 X-11.268 Y-7.464 E38.13968
G1 X-11.005 Y-7.909 E38.16547
G1 X-10.692 Y-8.328 E38.19156
G1 X-10.338 Y-8.714 E38.21769
G1 X-9.936 Y-9.079 E38.24478
G1 X-7.154 Y-11.271 E38.42148
G1 X-3.895 Y-13.869 E38.62942
G1 X-6.377 Y-17.002 E38.82883
G1 X-4.339 Y-18.618 E38.95859
G1 X-4.183 Y-18.742 E38.96853
G1 X-4.059 Y-18.586 E38.97496
G1 X-1.822 Y-15.762 E39.1547
G1 X-1.698 Y-15.606 E39.16464
G1 X-1.542 Y-15.73 E39.17108
G1 X1.236 Y-17.934 E39.34799
G1 X1.249 Y-17.944 E39.34881
G1 X1.34 Y-18.016 E39.3546
G1 X1.449 Y-18.103 E39.36156
G1 X1.449 Y-17.88
G1 X1.481 Y-17.651 E39.36866
G1 X1.488 Y-17.636 E39.36949
G1 X1.594 Y-17.401 E39.38235
G1 X1.752 Y-17.21 E39.39471
G1 X1.909 Y-17.076 E39.40501
G1 X2.117 Y-16.957 E39.41697
G1 X2.341 Y-16.877 E39.42883
G1 X2.566 Y-16.833 E39.44027
G1 X2.894 Y-16.823 E39.45664
G1 X10.853 Y-16.818 E39.85372
G1 X10.936 Y-16.809 E39.85788
G1 X11.018 Y-16.78 E39.86222
G1 X11.096 Y-16.731 E39.86682
G1 X11.156 Y-16.671 E39.87105
G1 X11.206 Y-16.593 E39.87568
G1 X11.234 Y-16.513 E39.8799
G1 X11.248 Y-16.384 E39.88638
G1 X11.248 Y-14.462 E39.98227
G1 X11.234 Y-14.334 E39.98869
G1 X11.204 Y-14.249 E39.99319
G1 X11.158 Y-14.176 E39.99749
G1 X11.095 Y-14.113 E40.00194
G1 X11.023 Y-14.068 E40.00617
G1 X10.936 Y-14.037 E40.01078
G1 X10.809 Y-14.023 E40.01716
G1 X2.73 Y-14.023 E40.42022
G1 X2.519 Y-14.005 E40.43078
G1 X2.289 Y-13.954 E40.44254
G1 X2.078 Y-13.866 E40.45394
G1 X1.906 Y-13.766 E40.46387
G1 X1.719 Y-13.605 E40.47618
G1 X1.572 Y-13.403 E40.48864
G1 X1.487 Y-13.207 E40.4993
G1 X1.451 Y-13.028 E40.50841
G1 X1.449 Y16.693 E41.9912
G1 X1.449 Y16.695 E41.9913
G1 X1.449 Y17.386 E42.02577
G1 X1.081 Y16.8 E42.04371
G1 X-2.819 Y10.598 E42.40922
G0 F3000 X-2.735 Y10.545
G0 X-6.273 Y-3.285
G0 X-6.302 Y-3.38
G1 F1500 X-5.907 Y-3.555 E42.43077
G1 X-5.567 Y-3.815 E42.45213
G1 X-5.292 Y-4.149 E42.47371
G1 X-5.105 Y-4.535 E42.49511
G1 X-5.011 Y-4.954 E42.51653
G1 X-5.014 Y-5.386 E42.53809
G1 X-5.121 Y-5.802 E42.55952
G1 X-5.316 Y-6.182 E42.58082
G1 X-5.597 Y-6.511 E42.60241
G1 X-5.943 Y-6.763 E42.62377
G1 X-6.342 Y-6.93 E42.64535
G1 X-6.766 Y-6.998 E42.66677
G1 X-7.194 Y-6.97 E42.68817
G1 X-7.606 Y-6.841 E42.70971
G1 X-7.976 Y-6.621 E42.73118
G1 X-8.286 Y-6.323 E42.75264
G1 X-8.517 Y-5.961 E42.77406
G1 X-8.661 Y-5.555 E42.79555
G1 X-8.703 Y-5.128 E42.81696
G1 X-8.65 Y-4.7 E42.83847
G1 X-8.498 Y-4.298 E42.85991
G1 X-8.257 Y-3.941 E42.8814
G1 X-7.941 Y-3.65 E42.90284
G1 X-7.567 Y-3.44 E42.92424
G1 X-7.153 Y-3.321 E42.94573
G1 X-6.724 Y-3.301 E42.96715
G1 X-6.302 Y-3.38 E42.98857
G0 F3000 X-6.421 Y-3.765
;TYPE:WALL-OUTER
G1 F1500 X-6.112 Y-3.902 E43.00543
G1 X-5.846 Y-4.105 E43.02213
G1 X-5.631 Y-4.366 E43.039
G1 X-5.485 Y-4.668 E43.05573
G1 X-5.411 Y-4.997 E43.07256
G1 X-5.414 Y-5.334 E43.08937
G1 X-5.497 Y-5.66 E43.10615
G1 X-5.65 Y-5.958 E43.12287
G1 X-5.87 Y-6.215 E43.13975
G1 X-6.141 Y-6.412 E43.15646
G1 X-6.453 Y-6.543 E43.17334
G1 X-6.785 Y-6.596 E43.19012
G1 X-7.12 Y-6.574 E43.20687
G1 X-7.442 Y-6.473 E43.2237
G1 X-7.732 Y-6.301 E43.24052
G1 X-7.974 Y-6.068 E43.25728
G1 X-8.155 Y-5.784 E43.27408
G1 X-8.268 Y-5.467 E43.29087
G1 X-8.301 Y-5.133 E43.30762
G1 X-8.259 Y-4.797 E43.32451
G1 X-8.14 Y-4.483 E43.34127
G1 X-7.952 Y-4.204 E43.35805
G1 X-7.704 Y-3.976 E43.37486
G1 X-7.411 Y-3.811 E43.39163
G1 X-7.088 Y-3.718 E43.4084
G1 X-6.752 Y-3.703 E43.42518
G1 X-6.421 Y-3.765 E43.44198
G0 F3000 X-6.239 Y-3.846
G0 X-6.038 Y-3.388
G0 X-10.976 Y-2.505
G0 X-11.41 Y-2.258
G1 F1500 X-11.681 Y-2.764 E43.47062
G1 X-11.907 Y-3.286 E43.499
G1 X-12.073 Y-3.821 E43.52695
G1 X-12.183 Y-4.372 E43.55498
G1 X-12.235 Y-4.932 E43.58304
G1 X-12.228 Y-5.494 E43.61108
G1 X-12.162 Y-6.06 E43.63951
G1 X-12.039 Y-6.608 E43.66753
